X:198
T:High Dad In The Morning
C:Kenny Baker
N:Transcribed by Greg Rohrer
R:bluegrass
L:1/8
Q:1/4=200
M:2/4
K:D
z4 | z2 A2 |: "D"[f4A4] | z2 A2 | [f4A4] | z2 ef | g2 (3fgf | e2 d2 | c2 (3BcB | 
"A"A4 | z4 | [A4A4] | z2 A2 | [e4e4] | z2 A2 | [e4e4] | z2 a^a | b2 a2 | fe dc | 
"D"d2 E2 | z2 =F2 | [B4F4] |1 z2 A2 :|2 z2 BA |: "D"=F^F Ac | d2 de | fe fg | 
fe dB | "A"Ac ec | e2 ef | ge fg | ec BA | "D"=F^F Ac | d2 de | fe fg | fe d2 | 
"A"[b4d4] | [a4c4] | fe dc | "D"d2 E2 | z2 =F2 | [B4F4] | z2 BA :|: "Bm"[AD][B2F2][dF] | 
[B3F3][dF] | [BF][AD] [BF][dF] | [B4F4] | [AD][B2F2][dF] | [B2F2] A2 | "A"F2 [c2A2] | 
[cA][cA] [c2A2] | "Bm"[AD][B2F2][dF] | [B3F3][dF] | [BF][AD] [BF][dF] | [B4F4] | 
"A"Bc de | fe fa | fe dc | "D"d2 E2 | z2 =F2 | [B4F4] |1 z2 BA :|2 z4 | 


